remix/Finance/money-dollar-circle-line.svg

<svg viewBox="0 0 24 24" fill="currentColor" xmlns="http://www.w3.org/2000/svg"><path d="M12.0049 22.0027C6.48204 22.0027 2.00488 17.5256 2.00488 12.0027C2.00488 6.4799 6.48204 2.00275 12.0049 2.00275C17.5277 2.00275 22.0049 6.4799 22.0049 12.0027C22.0049 17.5256 17.5277 22.0027 12.0049 22.0027ZM12.0049 20.0027C16.4232 20.0027 20.0049 16.421 20.0049 12.0027C20.0049 7.58447 16.4232 4.00275 12.0049 4.00275C7.5866 4.00275 4.00488 7.58447 4.00488 12.0027C4.00488 16.421 7.5866 20.0027 12.0049 20.0027ZM8.50488 14.0027H14.0049C14.281 14.0027 14.5049 13.7789 14.5049 13.5027C14.5049 13.2266 14.281 13.0027 14.0049 13.0027H10.0049C8.62417 13.0027 7.50488 11.8835 7.50488 10.5027C7.50488 9.12203 8.62417 8.00275 10.0049 8.00275H11.0049V6.00275H13.0049V8.00275H15.5049V10.0027H10.0049C9.72874 10.0027 9.50488 10.2266 9.50488 10.5027C9.50488 10.7789 9.72874 11.0027 10.0049 11.0027H14.0049C15.3856 11.0027 16.5049 12.122 16.5049 13.5027C16.5049 14.8835 15.3856 16.0027 14.0049 16.0027H13.0049V18.0027H11.0049V16.0027H8.50488V14.0027Z"/></svg>

<svg viewBox="0 0 24 24" xmlns="http://www.w3.org/2000/svg"><path fill="none" d="M0 0h24v24H0Z"/><path d="M12 22C6.477 22 2 17.523 2 12 2 6.477 6.477 2 12 2c5.523 0 10 4.477 10 10s-4.477 10-10 10Zm0-2v0c4.41 0 8-3.59 8-8 0-4.42-3.59-8-8-8v0c-4.42 0-8 3.58-8 8 0 4.41 3.58 8 8 8Zm-3.5-6H14v0c.27 0 .5-.23.5-.5 0-.28-.23-.5-.5-.5h-4v0c-1.39 0-2.5-1.12-2.5-2.5C7.5 9.11 8.61 8 10 8h1V6h2v2h2.5v2H10v0c-.28 0-.5.22-.5.5 0 .27.22.5.5.5h4v0c1.38 0 2.5 1.11 2.5 2.5 0 1.38-1.12 2.5-2.5 2.5h-1v2h-2v-2H8.5v-2Z"/></svg>
